X:570
T: DING DING THALERRING
N: E1874
O: Europa, Mitteleuropa, Deutschland, Erfurt, Stotternheim
R: Kinder - Lied, Lauf - Spiel
M: 2/4
L: 1/8
K: G
 | d2B2 | ddB
G | GABc | ddd2 |
ddBB | ddB
G | GABc | d2B2 |
ddBB | d2B2 |
ddBB | d2B2 |
dcBA | G2z2

@@@ Tune index: 5254
